X: 231
T: Bağışla Sevdiğim Hakkı Seversen
C: Neşet Ertaş
O: Turkey
F: http://compmusic.upf.edu/node/140
N: tahir--turku--nimsofyan--bagisla_sevdigim--kirsehir
N: makam= tahir
N: form= turku
N: usul= nimsofyan = 2/4
M: 2/4
L: 1/16
K: C _2/4B ^3/4f  
Q: 1/4=60
%%MIDI tuningsystem comma53
z2fg a2a2  | a2aa2ag=f  | ga2a ag2g  | gf2f fe2e  | 
w:   |   |   |   | 
ed2d2dd2  | d2dd d2c/B/A  | Bcd2 dBc2  | \
w:   |   |   | 
de2e ecc2  | 
w:   | 
cB2B BAA2  | A3A2AA2  | A2gf fee2  | e2gf fee2  | 
w:   |   |   |   | 
fg2g gff2  | =fe2e edd2  | dc2c cBB2  | \
w:   |   |   | 
BA2A AAA2  | 
w:   | 
A3A2AA2  | z2cd d2d2  | d2dd dcc2  | de2e edd2  | 
w:   |   |   |   | 
dc2c cBB2  | cd2d dBc2  | cB2B BAA2  | Gc2c cBB2  | 
w:   |   |   |   | 
BA2A AAA2  | A3A AAA2  | z2cd d2d2  | d2dd dcc2  | 
w:   |   |   |   | 
de2e edd2  | dc2c cBB2  | cd2d dBc2  | cB2B BAA2  | 
w:   |   |   |   | 
Gc2c cBB2  | BA2A AAA2  | A3A AAA2  | z2fg aa3  | 
w:   |   |   |  Ba ğış la  sev  | 
aa3 a2gf  | ga3 a{b}g3  | g{a}f3 f{g}e3  | \
w:  di ğim  Hak kı   |  se ver sen   |  vay  *  *  vay   | 
e{=f}d2d ddd2  | d2dd d2c2  | 
w:  vay    |   | 
Bcd2 dBc2  | de2e ecc2  | cB2B BAA2  | A3A fga2  | 
w:  SAZ  |   |   |   | 
z2fg aa3  | aa3 a2gf  | ga3 a{b}g3  | g{a}f3 f{g}e3  | \
w:  Ağ lat ma  ga  |  ri bi  el ler   |  i çin de   |  vay  *  *  vay   | 
e{=f}d2d ddd2  | 
w:  vay    | 
d2dd d2c2  | Bcd2 dBc2  | de2e ecc2  | cB2B BAA2  | 
w:   |  SAZ  |   |   | 
A3A AAA2  | d2gf fe3  | e2gf fe3  | gg3 gf3  | \
w:   |  Hep  bi zi  *  söy  |  le şir  *  bu  halk_  |  ı  â lem    | 
fe3 ed3  | 
w:   | 
dc3 cB3  | {c}BA2A AAA2  | A3A Bcd2  | z2cd d2d2  | \
w:   |  *  SAZ  |   |  Be ni  des tân_  | 
d2d2 dcc2  | 
w:  et tin  dil *  ler   | 
de3 ed3  | dc3 cB2A  | c2ed dcc2  | cB2B BAA2  | 
w:  i çin de   |   |  sev di ğim   |   | 
z2cc cc2B  | B2BA AAA2  | A3A AAA2  | z2cd d2d2  | 
w:  gül  yüz lü  mey    |   |  SAZ  |  Be ni  des tân_  | 
d2d2 dcc2  | de3 ed3  | dc3 cB2A  | c2ed dcc2  | \
w:  et tin  dil *  ler   |  i çin de   |   |  sev di ğim   | 
cB2B BAA2  | 
w:   | 
z2cc cc2B  | B2BA AAA2  | A3A AAA2  | z2cd d2d2  | 
w:  gül  yüz lü  mey    |   |  SAZ  |   | 
d2dd dcc2  | de2e edd2  | dc2c cBB2  | cd2d dBc2  | 
w:   |   |   |   | 
cB2B BAA2  | Gc2c cBB2  | BA2A AAA2  | A3A AAA2  | 
w:   |   |   |   | 
z2cd d2d2  | d2dd dcc2  | de2e edd2  | dc2c cBB2  | 
w:   |   |   |   | 
cd2d dBc2  | cB2B BAA2  | Gc2c cBB2  | BA2A AAA2  | 
w:   |   |   |   | 
A3A AAA2  | z2fg aa3  | aa3 a2gf  | ga3 a{b}g3  | \
w:   |  Ba ğış la  sev  |  di ğim  Hak kı   |  se ver sen   | 
g{a}f3 f{g}e3  | 
w:  vay  *  *  vay   | 
e{=f}d2d ddd2  | d2dd d2c2  | Bcd2 dBc2  | \
w:  vay    |   |  SAZ  | 
de2e ecc2  | 
w:   | 
cB2B BAA2  | A3A fga2  | z2fg aa3  | aa3 a2gf  | 
w:   |   |  Ağ lat ma  ga  |  ri bi  el ler   | 
ga3 a{b}g3  | g{a}f3 f{g}e3  | e{=f}d2d ddd2  | \
w:  i çin de   |  vay  *  *  vay   |  vay    | 
d2dd d2c2  | Bcd2 dBc2  | 
w:   |  SAZ  | 
de2e ecc2  | cB2B BAA2  | A3A AAA2  | d2gf fe3  | 
w:   |   |   |  Hep  bi zi  *  söy  | 
e2gf fe3  | gg3 gf3  | fe3 ed3  | dc3 cB3  | \
w:  le şir  *  bu  halk_  |  ı  â lem    |   |   | 
{c}BA2A AAA2  | 
w:  *  SAZ  | 
A3A Bcd2  | z2cd d2d2  | d2d2 dcc2  | de3 ed3  | \
w:   |  Be ni  des tân_  |  et tin  dil *  ler   |  i çin de   | 
dc3 cB2A  | 
w:   | 
c2ed dcc2  | cB2B BAA2  | z2cc cc2B  | B2BA AAA2  | 
w:  sev di ğim   |   |  gül  yüz lü  mey    |   | 
A3A AAA2  | z2cd d2d2  | d2d2 dcc2  | de3 ed3  | \
w:  SAZ  |  Be ni  des tân_  |  et tin  dil *  ler   |  i çin de   | 
dc3 cB2A  | 
w:   | 
c2ed dcc2  | cB2B BAA2  | z2cc cc2B  | B2BA AAA2  | 
w:  sev di ğim   |   |  gül  yüz lü  mey    |   | 
A3A AAA2  | |


